icones/avatar.svg

<svg width="18" height="18" viewBox="0 0 18 18" fill="none" xmlns="http://www.w3.org/2000/svg">
<path fill-rule="evenodd" clip-rule="evenodd" d="M8.65681 9.6989H8.72041H8.74426H8.78401C9.94873 9.68026 10.8908 9.29633 11.5865 8.56202C13.1169 6.94429 12.8625 4.17105 12.8347 3.9064C12.7353 1.91965 11.7336 0.969145 10.9067 0.525575C10.2906 0.193829 9.57109 0.0149099 8.76811 0H8.74029H8.72439H8.70053C8.25929 0 7.39271 0.0670947 6.5619 0.510665C5.72712 0.954235 4.70948 1.90474 4.6101 3.9064C4.58227 4.17105 4.32786 6.94429 5.8583 8.56202C6.54998 9.29633 7.49209 9.68026 8.65681 9.6989ZM5.67386 3.98171L5.67386 3.9817C5.67475 3.97719 5.67555 3.97308 5.67555 3.96973C5.80673 1.29713 7.83008 1.01011 8.69667 1.01011H8.71257H8.74437C9.81766 1.03248 11.6423 1.4425 11.7655 3.96973C11.7655 3.98091 11.7655 3.9921 11.7695 3.99955C11.7734 4.02564 12.0517 6.56033 10.7876 7.89477C10.2867 8.42407 9.6189 8.68499 8.74039 8.69245H8.72052H8.70064C7.82611 8.68499 7.15431 8.42407 6.65741 7.89477C5.39729 6.56778 5.6676 4.02192 5.67157 3.99955C5.67157 3.9934 5.67278 3.98724 5.67386 3.98171ZM16.8895 14.2874V14.2986C16.8935 14.4924 16.8975 15.4877 16.6987 15.9834C16.659 16.0803 16.5835 16.1623 16.492 16.2182L16.4903 16.2192C16.3481 16.3038 13.4941 18 8.73253 18C3.95041 18 1.09228 16.2928 0.973023 16.2182C0.877619 16.1623 0.806066 16.0803 0.766315 15.9834C0.555632 15.4839 0.559607 14.4887 0.563582 14.2949V14.2837C0.567557 14.2539 0.567557 14.224 0.567557 14.1905L0.56774 14.1849C0.591682 13.4474 0.647473 11.7289 2.3683 11.175L2.36833 11.175C2.38025 11.1712 2.39217 11.1675 2.40805 11.1638C4.2088 10.7351 5.69153 9.76597 5.70743 9.75479C5.94992 9.59451 6.28383 9.65042 6.45476 9.8778C6.62569 10.1052 6.56607 10.4183 6.32358 10.5786C6.32055 10.5804 6.31447 10.5842 6.30545 10.5899C6.11329 10.7114 4.5851 11.6772 2.69427 12.1329C1.76805 12.4423 1.6647 13.3704 1.63687 14.2203C1.63687 14.2376 1.63582 14.2539 1.6348 14.2697C1.63383 14.2846 1.6329 14.299 1.6329 14.3135C1.62495 14.649 1.65277 15.1671 1.71638 15.4653C2.36433 15.8082 4.90445 16.9973 8.72855 16.9973C12.5686 16.9973 15.0928 15.8119 15.7367 15.469C15.8004 15.1708 15.8242 14.6527 15.8202 14.3172C15.8163 14.2874 15.8163 14.2576 15.8163 14.224C15.7884 13.3742 15.6851 12.446 14.7589 12.1367C12.7792 11.6595 11.1971 10.627 11.1295 10.5823C10.8871 10.422 10.8274 10.1089 10.9984 9.88153C11.1693 9.65415 11.5032 9.59824 11.7457 9.75852C11.7616 9.7697 13.2523 10.7388 15.0451 11.1675C15.051 11.1694 15.058 11.1712 15.0649 11.1731C15.0719 11.175 15.0789 11.1768 15.0848 11.1787C16.8059 11.729 16.8615 13.448 16.8854 14.1889L16.8856 14.1942C16.8856 14.2115 16.8866 14.2278 16.8876 14.2436C16.8886 14.2585 16.8895 14.2729 16.8895 14.2874Z" fill="black"/>
</svg>

<svg width="18" height="18" fill="none" xmlns="http://www.w3.org/2000/svg"><path fill-rule="evenodd" clip-rule="evenodd" d="M8.657 9.699h.127c1.165-.019 2.107-.403 2.802-1.137 1.53-1.618 1.277-4.39 1.249-4.656-.1-1.986-1.101-2.937-1.928-3.38C10.29.194 9.57.015 8.768 0h-.067c-.442 0-1.308.067-2.14.51-.834.444-1.852 1.395-1.95 3.396-.029.265-.283 3.038 1.247 4.656.692.734 1.634 1.118 2.799 1.137ZM5.674 3.982l.002-.012c.13-2.673 2.154-2.96 3.02-2.96h.048c1.074.022 2.898.432 3.021 2.96 0 .01 0 .022.005.03.003.026.282 2.56-.982 3.895-.501.53-1.17.79-2.048.797H8.7c-.874-.007-1.546-.268-2.043-.797-1.26-1.327-.99-3.873-.985-3.895 0-.007 0-.013.002-.018ZM16.89 14.287v.012c.003.193.008 1.189-.191 1.684a.507.507 0 0 1-.207.235l-.002.001C16.348 16.304 13.494 18 8.733 18c-4.783 0-7.64-1.707-7.76-1.782a.487.487 0 0 1-.207-.235c-.21-.5-.206-1.494-.202-1.688v-.011c.004-.03.004-.06.004-.094v-.005c.024-.738.08-2.456 1.8-3.01a.483.483 0 0 1 .04-.011c1.8-.429 3.284-1.398 3.3-1.41a.559.559 0 0 1 .747.124.483.483 0 0 1-.15.712c-.192.121-1.72 1.087-3.61 1.543-.927.31-1.03 1.237-1.058 2.087a.753.753 0 0 1-.002.05.673.673 0 0 0-.002.043c-.008.336.02.854.083 1.152.648.343 3.188 1.532 7.013 1.532 3.84 0 6.364-1.185 7.008-1.528.063-.298.087-.816.083-1.152-.004-.03-.004-.06-.004-.093-.028-.85-.13-1.778-1.057-2.087-1.98-.478-3.562-1.51-3.63-1.555a.483.483 0 0 1-.13-.7.559.559 0 0 1 .747-.123c.016.01 1.506.98 3.3 1.409l.019.005.02.006c1.72.55 1.776 2.269 1.8 3.01v.005c0 .017.002.034.003.05l.002.043Z" fill="#000"/></svg>
